src/assets/flags/sb.svg

<?xml version="1.0" encoding="UTF-8"?>
<svg xmlns="http://www.w3.org/2000/svg" xmlns:xlink="http://www.w3.org/1999/xlink" width="25px" height="px" viewBox="0 0 25 19" version="1.1">
<g id="surface1">
<path style=" stroke:none;fill-rule:evenodd;fill:rgb(0%,0%,83.92157%);fill-opacity:1;" d="M 0 18.820312 L 36.160156 0 L 0 0 Z M 0 18.820312 "/>
<path style=" stroke:none;fill-rule:evenodd;fill:rgb(0%,37.64706%,0%);fill-opacity:1;" d="M 37.5 0 L 0.996094 19 L 37.5 19 Z M 37.5 0 "/>
<path style=" stroke:none;fill-rule:evenodd;fill:rgb(100%,80.000001%,0%);fill-opacity:1;" d="M 37.5 0 L 35.488281 0 L 0 18.011719 L 0 19 L 2.011719 19 L 37.5 1.023438 Z M 37.5 0 "/>
<path style=" stroke:none;fill-rule:evenodd;fill:rgb(100%,100%,100%);fill-opacity:1;" d="M 2.613281 0.335938 L 3.046875 1.617188 L 4.457031 1.617188 L 3.316406 2.402344 L 3.753906 3.675781 L 2.613281 2.894531 L 1.476562 3.679688 L 1.910156 2.40625 L 0.773438 1.613281 L 2.179688 1.613281 Z M 9.613281 0.335938 L 10.046875 1.617188 L 11.457031 1.617188 L 10.316406 2.40625 L 10.753906 3.679688 L 9.609375 2.894531 L 8.472656 3.683594 L 8.910156 2.410156 L 7.765625 1.617188 L 9.175781 1.617188 Z M 9.613281 5.699219 L 10.046875 6.980469 L 11.457031 6.980469 L 10.316406 7.765625 L 10.753906 9.042969 L 9.613281 8.253906 L 8.476562 9.042969 L 8.914062 7.765625 L 7.769531 6.976562 L 9.179688 6.976562 Z M 6.132812 3.050781 L 6.570312 4.328125 L 7.976562 4.328125 L 6.839844 5.117188 L 7.273438 6.394531 L 6.136719 5.601562 L 4.996094 6.394531 L 5.433594 5.117188 L 4.292969 4.328125 L 5.703125 4.328125 Z M 2.613281 5.699219 L 3.046875 6.980469 L 4.457031 6.980469 L 3.316406 7.765625 L 3.753906 9.042969 L 2.613281 8.253906 L 1.476562 9.042969 L 1.914062 7.765625 L 0.769531 6.976562 L 2.175781 6.976562 Z M 2.613281 5.699219 "/>
</g>
</svg>

<svg xmlns="http://www.w3.org/2000/svg" width="25" height="px" viewBox="0 0 25 19"><path d="M0 18.82 36.16 0H0Zm0 0" style="stroke:none;fill-rule:evenodd;fill:#0000d6;fill-opacity:1"/><path d="M37.5 0 .996 19H37.5Zm0 0" style="stroke:none;fill-rule:evenodd;fill:#006000;fill-opacity:1"/><path d="M37.5 0h-2.012L0 18.012V19h2.012L37.5 1.023Zm0 0" style="stroke:none;fill-rule:evenodd;fill:#fc0;fill-opacity:1"/><path d="m2.613.336.434 1.281h1.41l-1.14.785.437 1.274-1.14-.781-1.137.785.433-1.274-1.137-.793H2.18Zm7 0 .434 1.281h1.41l-1.14.79.437 1.273-1.145-.785-1.136.789.437-1.274-1.144-.793h1.41Zm0 5.363.434 1.281h1.41l-1.14.786.437 1.277-1.14-.79-1.137.79.437-1.277-1.144-.79h1.41Zm-3.48-2.648.437 1.277h1.407l-1.137.79.433 1.277-1.136-.793-1.14.793.437-1.278-1.141-.789h1.41Zm-3.52 2.648.434 1.281h1.41l-1.14.786.437 1.277-1.14-.79-1.137.79.437-1.277-1.144-.79h1.406Zm0 0" style="stroke:none;fill-rule:evenodd;fill:#fff;fill-opacity:1"/></svg>
